X:1220
T:Polska efter Murar Johan
R:Polska
Z:Göran Hed 2009-02-20
O:Årsunda, Gästrikland
S:efter Erik Hartwig
M: 3/4
L: 1/8
K:G
e|:d2>>G2 B>G|d>G B>G B>G|e2>>G2 c>G|e>G c>G e2|
d2>>G2 B>G|d>G B>d g>e|c2 A>D F>A|1 c>B G3e:|2 c>B G3 E|
|:D>G B>d g2|e2 d>G B>d|c2 A>D F>A|d2B3/2D/2G2|
D>G B>d g2|e2 d>G B>d|c2 A>D F>A|1c>B G3E:|2c>B G2 d2|
|:g2 e>c e>g|d>B G2B2|D>F A>d F>A|G>g d>B G2|
g2 e>c e>g|d>B G2B2|D>F A>d F>A|G2G4:||

(:musicend:)

(:music:)
